X:1
T: Double Scotch
C:Tony Wright
R:Jig
Q:180
K:Dm
M:6/8
L:1/16
|:C2|F2z2F2 F2G2A2|G2z2E2 C2z2B2|A2G2F2 c2B2A2|G2A2F2 E2D2C2|
F2z2D2 D2G2A2|G2z2E2 C2z2B2|A2B2A2 G2F2E2|1D2z2FE D2z2C2:|2D6 D4A2|
|:d2z2ed d2A2d2|c2z2dc c2A2c2|d2z2ed d2A2d2|c2z2dc A2G2E2|
D2z2ED F2z2G2|A2G2A2 d4cB|1A2z2BA G2F2E2|D6 A2=B2^c2:|2A2z2BA A2=B2^c2|d6 d4||
